images/pages/about/assessment_icon.svg

<svg xmlns="http://www.w3.org/2000/svg" viewBox="0 0 50 49" width="50" height="49"><defs><clipPath clipPathUnits="userSpaceOnUse" id="cp1"><path d="M-820-2319H620v4120H-820z"/></clipPath></defs><style></style><g id="About" clip-path="url(#cp1)"><g id="Group 11266"><path id="Rectangle 397" d="M4.76 0h41c2.21 0 4 1.79 4 4v41c0 2.21-1.79 4-4 4h-41c-2.21 0-4-1.79-4-4V4c0-2.21 1.79-4 4-4z" fill="#fff"/><path id="np_graph_86995_000000" fill-rule="evenodd" d="M8.87 40c-.36 0-.74.25-1 0-.25-.25 0-.64 0-1V13c0-.75.25-1 1-1s2 .25 2 1v24h29c.75 0 1 1.25 1 2s-.25 1-1 1h-31zm23-5V14c0-.11.93.07 1 0 .08-.07-.1-1 0-1h6c.11 0 .93.93 1 1v21c-.07.08-.89 0-1 0h-6c-.07-.07-1 .11-1 0zm-9 0c-.03-.03-.03-.02-.03 0-.01.01 0 .02.01.02.01.01.01.02.02.01.02.01.04 0 0-.03zm-.02.02c.01.01.01.01.02.01V17h7v18h-7.03c0 .01.01.02.01.02zM22.87 17c-.03.03-.03.02-.03 0 0-.01 0-.02.01-.02.01-.01.01-.02.02-.01.02-.01.04 0 0 .03zm0-.03c-.01 0-.02.01-.02.01s-.01.01-.01.02h.03v-.03zm7 .03c-.03-.03-.01-.04.01-.03 0-.01.01 0 .02.01.01 0 .01.01 0 .02.01.02.01.03-.03 0zm.03 0v-.02c-.01-.01-.02-.01-.02-.01-.01 0-.01.01-.01.03h.03zm-.03 18c.04-.03.04-.02.03 0 .01.01.01.02 0 .02-.01.01-.02.02-.02.01-.02.01-.04 0-.01-.03zm.01.03s.01 0 .02-.01V35h-.03c0 .02 0 .03.01.03zm-17.01 0c-.01.01-.01 0-.02-.01-.01 0-.02-.01-.01-.02 0-.02 0-.03.03 0 .04.03.02.04 0 .03zm-.02-.01c.01.01.01.01.02.01V35h-.03c0 .01.01.02.01.02zm.02-.02V21c.04-.03.02-.04 0-.03-.01-.01-.01 0-.02.01-.01 0-.01.01-.01.02 0 .02 0 .03.03 0v-.03c-.01 0-.01 0-.02.01 0 0-.01.01-.01.02h7.03c.04.03.04.02.03 0 .01-.01 0-.02-.01-.02 0-.01-.01-.02-.01-.01-.02-.01-.04 0-.01.03h.03c0-.01 0-.02-.01-.02l-.01-.01c-.01.01-.01.01-.01.03v14c-.03.03-.01.04.01.03 0 .01.01 0 .01-.01.01 0 .02-.01.01-.02.01-.02.01-.03-.03 0 0 .02 0 .03.01.03 0 0 .01 0 .01-.01.01 0 .01-.01.01-.02h-7.03zm27 3z" fill="#61798e"/></g></g></svg>

<svg xmlns="http://www.w3.org/2000/svg" viewBox="0 0 50 49" width="50" height="49">
	<defs>
		<clipPath clipPathUnits="userSpaceOnUse" id="cp1">
			<path d="M-820 -2319L620 -2319L620 1801L-820 1801Z" />
		</clipPath>
	</defs>
	<style>
		tspan { white-space:pre }
		.shp0 { fill: #ffffff } 
		.shp1 { fill: #61798e } 
	</style>
	<g id="About" clip-path="url(#cp1)">
		<g id="Group 11266">
			<path id="Rectangle 397" class="shp0" d="M4.76 0L45.76 0C47.97 0 49.76 1.79 49.76 4L49.76 45C49.76 47.21 47.97 49 45.76 49L4.76 49C2.55 49 0.76 47.21 0.76 45L0.76 4C0.76 1.79 2.55 0 4.76 0Z" />
			<path id="np_graph_86995_000000" fill-rule="evenodd" class="shp1" d="M8.87 40C8.51 40 8.13 40.25 7.87 40C7.62 39.75 7.87 39.36 7.87 39L7.87 13C7.87 12.25 8.12 12 8.87 12C9.62 12 10.87 12.25 10.87 13L10.87 37L39.87 37C40.62 37 40.87 38.25 40.87 39C40.87 39.75 40.62 40 39.87 40L8.87 40ZM31.87 35L31.87 14C31.87 13.89 32.8 14.07 32.87 14C32.95 13.93 32.77 13 32.87 13L38.87 13C38.98 13 39.8 13.93 39.87 14L39.87 35C39.8 35.08 38.98 35 38.87 35L32.87 35C32.8 34.93 31.87 35.11 31.87 35ZM22.87 35C22.84 34.97 22.84 34.98 22.84 35C22.83 35.01 22.84 35.02 22.85 35.02C22.86 35.03 22.86 35.04 22.87 35.03C22.89 35.04 22.91 35.03 22.87 35ZM22.85 35.02C22.86 35.03 22.86 35.03 22.87 35.03C22.87 35.03 22.87 35.02 22.87 35L22.87 17L29.87 17L29.87 35L22.87 35C22.87 35 22.87 35 22.87 35C22.86 35 22.85 35 22.84 35C22.84 35.01 22.85 35.02 22.85 35.02ZM22.87 17C22.84 17.03 22.84 17.02 22.84 17C22.84 16.99 22.84 16.98 22.85 16.98C22.86 16.97 22.86 16.96 22.87 16.97C22.89 16.96 22.91 16.97 22.87 17ZM22.87 16.97C22.86 16.97 22.85 16.98 22.85 16.98C22.85 16.98 22.84 16.99 22.84 17C22.85 17 22.86 17 22.87 17C22.87 16.98 22.87 16.98 22.87 16.97ZM29.87 17C29.84 16.97 29.86 16.96 29.88 16.97C29.88 16.96 29.89 16.97 29.9 16.98C29.91 16.98 29.91 16.99 29.9 17C29.91 17.02 29.91 17.03 29.87 17ZM29.9 17C29.9 16.99 29.9 16.98 29.9 16.98C29.89 16.97 29.88 16.97 29.88 16.97C29.87 16.97 29.87 16.98 29.87 17C29.89 17 29.9 17 29.9 17ZM29.87 35C29.91 34.97 29.91 34.98 29.9 35C29.91 35.01 29.91 35.02 29.9 35.02C29.89 35.03 29.88 35.04 29.88 35.03C29.86 35.04 29.84 35.03 29.87 35ZM29.88 35.03C29.88 35.03 29.89 35.03 29.9 35.02C29.9 35.02 29.9 35.01 29.9 35C29.9 35 29.89 35 29.87 35C29.87 35.02 29.87 35.03 29.88 35.03ZM12.87 35.03C12.86 35.04 12.86 35.03 12.85 35.02C12.84 35.02 12.83 35.01 12.84 35C12.84 34.98 12.84 34.97 12.87 35C12.91 35.03 12.89 35.04 12.87 35.03ZM12.85 35.02C12.86 35.03 12.86 35.03 12.87 35.03C12.87 35.03 12.87 35.02 12.87 35C12.86 35 12.85 35 12.84 35C12.84 35.01 12.85 35.02 12.85 35.02ZM12.87 35L12.87 21C12.91 20.97 12.89 20.96 12.87 20.97C12.86 20.96 12.86 20.97 12.85 20.98C12.84 20.98 12.84 20.99 12.84 21C12.84 21.02 12.84 21.03 12.87 21C12.87 20.98 12.87 20.97 12.87 20.97C12.86 20.97 12.86 20.97 12.85 20.98C12.85 20.98 12.84 20.99 12.84 21C12.85 21 12.86 21 12.87 21L19.87 21C19.91 21.03 19.91 21.02 19.9 21C19.91 20.99 19.9 20.98 19.89 20.98C19.89 20.97 19.88 20.96 19.88 20.97C19.86 20.96 19.84 20.97 19.87 21C19.89 21 19.9 21 19.9 21C19.9 20.99 19.9 20.98 19.89 20.98C19.89 20.98 19.88 20.97 19.88 20.97C19.87 20.98 19.87 20.98 19.87 21L19.87 35C19.84 35.03 19.86 35.04 19.88 35.03C19.88 35.04 19.89 35.03 19.89 35.02C19.9 35.02 19.91 35.01 19.9 35C19.91 34.98 19.91 34.97 19.87 35C19.87 35.02 19.87 35.03 19.88 35.03C19.88 35.03 19.89 35.03 19.89 35.02C19.9 35.02 19.9 35.01 19.9 35C19.9 35 19.89 35 19.87 35L12.87 35ZM39.87 38L39.87 38Z" />
		</g>
	</g>
</svg>
